svg/furkot/icomoon/arrow-top.svg

<svg viewBox="0 0 512 512" xmlns="http://www.w3.org/2000/svg"><path d="m482 286.067h-135l-1.243 225.933h-178.703l-.054-225.933h-135l224.945-224.067zm-482-286.067h511.995l.005 48h-511.995z"/></svg>

<svg viewBox="0 0 512 512" xmlns="http://www.w3.org/2000/svg" xmlns:bx="https://boxy-svg.com"><defs><bx:grid x="0" y="0" width="100" height="100"/></defs><path d="M 482 286.067 L 347 286.067 L 345.757 512 L 167.054 512 L 167 286.067 L 32 286.067 L 256.945 62 L 482 286.067 Z M 0 0 L 511.995 0 L 512 48 L 0.005 48 L 0 0 Z"/></svg>
